images/twitter.svg

<svg width="20" height="20" viewBox="0 0 20 20" fill="none" xmlns="http://www.w3.org/2000/svg">
<path d="M19.8851 3.78799C19.7521 3.64259 19.538 3.60481 19.3633 3.69583C19.1837 3.77743 18.9979 3.84461 18.8077 3.8967C19.1044 3.51697 19.3285 3.08567 19.4685 2.62449C19.5302 2.39244 19.3921 2.15431 19.16 2.09264C19.0361 2.0597 18.904 2.08314 18.799 2.15667C18.1379 2.51444 17.4352 2.78929 16.7068 2.97496C15.2073 1.55964 12.9232 1.38322 11.2241 2.55149C9.91526 3.43642 9.19472 4.96587 9.34578 6.53849C6.50866 6.29674 3.89834 4.89083 2.13524 2.65494C2.04467 2.54537 1.90763 2.48505 1.76566 2.49234C1.62169 2.50099 1.49142 2.58047 1.41784 2.70451C0.819462 3.68266 0.646104 4.86258 0.937833 5.9715C1.08743 6.54127 1.34386 7.07744 1.69351 7.55154C1.53601 7.47442 1.3878 7.37961 1.25178 7.26894C1.06529 7.11767 0.7915 7.14621 0.640193 7.33269C0.577421 7.4101 0.543099 7.5067 0.543059 7.60636C0.568901 9.2151 1.45228 10.6874 2.85961 11.4673C2.66975 11.444 2.48233 11.4038 2.29959 11.3473C2.06966 11.2781 1.82717 11.4084 1.758 11.6384C1.72783 11.7387 1.73488 11.8465 1.77785 11.9421C2.38866 13.3103 3.60979 14.3097 5.07182 14.6378C3.67888 15.4236 2.07492 15.7539 0.484811 15.5821C0.278639 15.5558 0.08331 15.6811 0.0213118 15.8795C-0.0426022 16.0764 0.0410403 16.2909 0.221328 16.3926C2.1683 17.5494 4.38316 18.1788 6.6475 18.2187C8.81984 18.2108 10.9415 17.5619 12.7467 16.3535C16.1929 14.0665 18.3407 9.9603 18.0416 6.28634C18.7784 5.74091 19.4176 5.07471 19.9321 4.31589C20.0378 4.14958 20.0185 3.93298 19.8851 3.78799Z" fill="white"/>
</svg>

<svg xmlns="http://www.w3.org/2000/svg" width="20" height="20" fill="none"  xmlns:v="https://vecta.io/nano"><path d="M19.885 3.788c-.133-.145-.347-.183-.522-.092-.18.082-.365.15-.556.2a3.91 3.91 0 0 0 .661-1.272c.062-.232-.076-.47-.308-.532-.124-.033-.256-.01-.36.064a9.14 9.14 0 0 1-2.092.818c-1.5-1.415-3.784-1.592-5.483-.423-1.31.885-2.03 2.414-1.878 3.987-2.837-.242-5.447-1.648-7.21-3.884a.45.45 0 0 0-.37-.163c-.144.01-.274.088-.348.212a4.21 4.21 0 0 0-.48 3.267c.15.57.406 1.106.756 1.58a2.31 2.31 0 0 1-.442-.283c-.186-.15-.46-.123-.612.064-.063.077-.097.174-.097.274.026 1.61.91 3.08 2.317 3.86-.2-.023-.377-.063-.56-.12-.23-.07-.472.06-.542.29-.03.1-.023.208.02.304C2.39 13.3 3.6 14.3 5.072 14.638a7.66 7.66 0 0 1-4.587.944.43.43 0 0 0-.463.297c-.064.197.02.41.2.513a13.03 13.03 0 0 0 6.426 1.826c2.172-.008 4.294-.657 6.1-1.865 3.446-2.287 5.594-6.393 5.295-10.067.737-.545 1.376-1.212 1.9-1.97.106-.166.086-.383-.047-.528z" fill="#fff"/></svg>
